images/pig-scheme/rebra.svg

<svg width="249" height="145" viewBox="0 0 249 145" fill="none" xmlns="http://www.w3.org/2000/svg">
<path d="M248.29 0L230.48 8.62003C230.42 8.65003 230.36 8.68 230.3 8.72L225.97 11.16L213.04 18.44L193.47 29.46C193.39 29.51 193.31 29.56 193.23 29.61C182.8 36.69 174 44.21 168.91 51.82C168.87 51.88 168.82 51.95 168.77 52.01C167.3 53.78 165.89 55.7 164.55 57.74C161.08 63.04 158.23 68.99 155.99 75.49C155.09 78.09 154.29 80.77 153.59 83.54C152.81 86.59 152.15 89.74 151.61 92.97L150.36 102.64C150.24 103.89 150.14 105.15 150.06 106.42C149.92 108.38 149.83 110.36 149.77 112.36C149.61 118.44 149.79 124.73 150.32 131.16C150.46 132.86 150.63 134.57 150.83 136.3C150.98 137.76 151.16 139.22 151.36 140.69C151.62 142.61 150.14 144.33 148.2 144.32C146.75 144.31 144.95 144.3 142.84 144.29C141.16 144.28 139.28 144.27 137.22 144.26C131.94 144.23 125.44 144.19 117.99 144.14C116.18 144.12 114.31 144.11 112.39 144.09C106.47 144.05 100.04 143.99 93.2 143.93C91.37 143.92 89.5 143.9 87.6 143.88C81.48 143.82 75.07 143.76 68.45 143.68C66.6 143.67 64.74 143.64 62.86 143.62C56.64 143.55 50.25 143.48 43.74 143.39C41.9 143.37 40.04 143.34 38.17 143.31C31.88 143.23 25.51 143.14 19.09 143.04C17.24 143.01 15.39 142.98 13.53 142.95C9.03 142.88 4.51 142.8 0 142.72C0.48 139.8 2.58998 136.01 5.50998 131.62C9.20998 126.06 14.21 119.54 18.87 112.61C25.64 102.55 31.67 91.62 31.89 81.5C37.09 80.39 42.18 79.13 47.11 77.72C50.31 76.8 53.49 75.84 56.63 74.85C59.47 73.95 62.29 73.02 65.07 72.06C76.63 68.08 87.62 63.63 97.61 58.87C101.61 56.97 105.45 55.02 109.1 53.03C111.89 51.51 114.58 49.97 117.14 48.41C117.8 48.01 118.46 47.6 119.12 47.19C121.59 45.64 124.08 44.13 126.61 42.7C136.41 37.17 145.41 30.31 153.41 22.4C157.82 18.04 162.01 13.9 163.71 12.22C164.22 11.72 164.88 11.4 165.59 11.32C167.05 11.16 168.8 10.94 170.79 10.69C172.75 10.44 174.94 10.15 177.3 9.83002C183.82 8.94002 191.69 7.82 199.83 6.66C202.01 6.34 204.22 6.02001 206.43 5.70001C214.29 4.57001 222.12 3.44001 229 2.48001C231.3 2.16001 233.5 1.86002 235.55 1.58002C241.06 0.830017 245.54 0.27 248.29 0Z" fill="#C21921"/>
<path fill-rule="evenodd" clip-rule="evenodd" d="M65.07 72.0601L5.51001 131.62C9.21001 126.06 14.21 119.54 18.87 112.61L56.63 74.8501C59.47 73.9501 62.29 73.0201 65.07 72.0601Z" fill="#9E1B1E"/>
<path fill-rule="evenodd" clip-rule="evenodd" d="M109.1 53.03L19.09 143.04C17.24 143.01 15.39 142.98 13.53 142.95L97.61 58.8701C101.61 56.9701 105.45 55.02 109.1 53.03Z" fill="#9E1B1E"/>
<path fill-rule="evenodd" clip-rule="evenodd" d="M177.3 9.83008L43.7399 143.39C41.8999 143.37 40.0399 143.34 38.1699 143.31L170.79 10.6901C172.75 10.4401 174.94 10.1501 177.3 9.83008Z" fill="#9E1B1E"/>
<path fill-rule="evenodd" clip-rule="evenodd" d="M206.43 5.70007L68.4501 143.68C66.6001 143.67 64.7401 143.64 62.8601 143.62L199.83 6.66006C202.01 6.34006 204.22 6.02007 206.43 5.70007Z" fill="#9E1B1E"/>
<path fill-rule="evenodd" clip-rule="evenodd" d="M87.6001 143.88L155.99 75.4901C155.09 78.0901 154.29 80.7701 153.59 83.5401L93.2001 143.93C91.3701 143.92 89.5001 143.9 87.6001 143.88Z" fill="#9E1B1E"/>
<path fill-rule="evenodd" clip-rule="evenodd" d="M235.55 1.58008L225.97 11.1601L213.04 18.4401L229 2.48007C231.3 2.16007 233.5 1.86008 235.55 1.58008Z" fill="#9E1B1E"/>
<path fill-rule="evenodd" clip-rule="evenodd" d="M150.06 106.42C149.92 108.38 149.83 110.36 149.77 112.36L117.99 144.14C116.18 144.12 114.31 144.11 112.39 144.09L150.06 106.42Z" fill="#9E1B1E"/>
<path fill-rule="evenodd" clip-rule="evenodd" d="M150.83 136.3L142.84 144.29C141.16 144.28 139.28 144.27 137.22 144.26L150.32 131.16C150.46 132.86 150.63 134.57 150.83 136.3Z" fill="#9E1B1E"/>
</svg>

<svg width="249" height="145" fill="none" xmlns="http://www.w3.org/2000/svg"><path d="M248.29 0l-17.81 8.62c-.06.03-.12.06-.18.1l-4.33 2.44-12.93 7.28-19.57 11.02-.24.15c-10.43 7.08-19.23 14.6-24.32 22.21-.04.06-.09.13-.14.19a63.787 63.787 0 00-4.22 5.73c-3.47 5.3-6.32 11.25-8.56 17.75-.9 2.6-1.7 5.28-2.4 8.05-.78 3.05-1.44 6.2-1.98 9.43l-1.25 9.67c-.12 1.25-.22 2.51-.3 3.78-.14 1.96-.23 3.94-.29 5.94-.16 6.08.02 12.37.55 18.8.14 1.7.31 3.41.51 5.14.15 1.46.33 2.92.53 4.39.26 1.92-1.22 3.64-3.16 3.63-1.45-.01-3.25-.02-5.36-.03a18949.525 18949.525 0 01-24.85-.15c-1.81-.02-3.68-.03-5.6-.05-5.92-.04-12.35-.1-19.19-.16-1.83-.01-3.7-.03-5.6-.05-6.12-.06-12.53-.12-19.15-.2-1.85-.01-3.71-.04-5.59-.06-6.22-.07-12.61-.14-19.12-.23-1.84-.02-3.7-.05-5.57-.08-6.29-.08-12.66-.17-19.08-.27l-5.56-.09c-4.5-.07-9.02-.15-13.53-.23.48-2.92 2.59-6.71 5.51-11.1 3.7-5.56 8.7-12.08 13.36-19.01 6.77-10.06 12.8-20.99 13.02-31.11 5.2-1.11 10.29-2.37 15.22-3.78 3.2-.92 6.38-1.88 9.52-2.87 2.84-.9 5.66-1.83 8.44-2.79 11.56-3.98 22.55-8.43 32.54-13.19 4-1.9 7.84-3.85 11.49-5.84a191.997 191.997 0 0010.02-5.84c2.47-1.55 4.96-3.06 7.49-4.49 9.8-5.53 18.8-12.39 26.8-20.3l10.3-10.18a3.2 3.2 0 011.88-.9c1.46-.16 3.21-.38 5.2-.63 1.96-.25 4.15-.54 6.51-.86 6.52-.89 14.39-2.01 22.53-3.17 2.18-.32 4.39-.64 6.6-.96 7.86-1.13 15.69-2.26 22.57-3.22 2.3-.32 4.5-.62 6.55-.9C241.06.83 245.54.27 248.29 0z" fill="#C21921"/><path fill-rule="evenodd" clip-rule="evenodd" d="M65.07 72.06L5.51 131.62c3.7-5.56 8.7-12.08 13.36-19.01l37.76-37.76c2.84-.9 5.66-1.83 8.44-2.79zm44.03-19.03l-90.01 90.01-5.56-.09 84.08-84.08c4-1.9 7.84-3.85 11.49-5.84zm68.2-43.2L43.74 143.39c-1.84-.02-3.7-.05-5.57-.08L170.79 10.69c1.96-.25 4.15-.54 6.51-.86zm29.13-4.13L68.45 143.68c-1.85-.01-3.71-.04-5.59-.06L199.83 6.66c2.18-.32 4.39-.64 6.6-.96zM87.6 143.88l68.39-68.39c-.9 2.6-1.7 5.28-2.4 8.05L93.2 143.93c-1.83-.01-3.7-.03-5.6-.05zM235.55 1.58l-9.58 9.58-12.93 7.28L229 2.48c2.3-.32 4.5-.62 6.55-.9zm-85.49 104.84c-.14 1.96-.23 3.94-.29 5.94l-31.78 31.78c-1.81-.02-3.68-.03-5.6-.05l37.67-37.67zm.77 29.88l-7.99 7.99c-1.68-.01-3.56-.02-5.62-.03l13.1-13.1c.14 1.7.31 3.41.51 5.14z" fill="#9E1B1E"/></svg>
